X: 78
T:As I roamed in a Churchyard
M:3/4
L:1/8
Q:150
S:Michael Raven (Hynde Horn)
A:Wales
Z:brian_martin12345@yahoo.com
K:Dm
D DF|G3F GF|ED2E FG|A3A GF|ED2A A=B|!
c3A dc|=BA2D DE|F3D GF|ED2||
